src/resources/icons-flag/src/flag/slovakia-square.svg

<?xml version="1.0" encoding="UTF-8"?>
<svg width="40px" height="40px" viewBox="0 0 40 40" version="1.1" xmlns="http://www.w3.org/2000/svg" xmlns:xlink="http://www.w3.org/1999/xlink">
    <title>EC/Icons/Country flags/Square/40x40/slovakia</title>
    <defs>
        <path d="M7.59987325,19 C4.47292195,17.4947034 5.40012479e-15,14.5071633 5.40012479e-15,8.59731602 C5.40012479e-15,2.68759542 0.282781855,-1.8000416e-15 0.282781855,-1.8000416e-15 L14.9170914,-1.8000416e-15 C14.9170914,-1.8000416e-15 15.2,2.68759542 15.2,8.59731602 C15.2,14.5071633 10.7270781,17.4947034 7.59987325,19" id="path-1"></path>
    </defs>
    <g id="EC/Icons/Country-flags/Square/40x40/slovakia" stroke="none" stroke-width="1" fill="none" fill-rule="evenodd">
        <g id="Group-5" transform="translate(1.000000, 1.000000)">
            <polygon id="Fill-1" fill="#D8262D" points="0 38 38 38 38 3.60008319e-15 0 3.60008319e-15"></polygon>
            <polygon id="Fill-3" fill="#1C4689" points="0 25.65 38 25.65 38 -7.25641769e-14 0 -7.25641769e-14"></polygon>
            <polygon id="Fill-4" fill="#FFFFFE" points="0 12.35 38 12.35 38 7.17204074e-14 0 7.17204074e-14"></polygon>
        </g>
        <path d="M15.4998699,31 C12.0026394,29.3363119 7,26.034367 7,19.5024037 C7,12.9705688 7.31629843,10 7.31629843,10 L23.6837016,10 C23.6837016,10 24,12.9705688 24,19.5024037 C24,26.034367 18.9974907,29.3363119 15.4998699,31" id="Fill-6" fill="#FFFFFE"></path>
        <path d="M15.4998749,30 C12.4140677,28.4947034 8,25.5071633 8,19.597316 C8,13.6875954 8.27906104,11 8.27906104,11 L22.7208139,11 C22.7208139,11 23,13.6875954 23,19.597316 C23,25.5071633 18.5859323,28.4947034 15.4998749,30" id="Fill-7" fill="#D8262D"></path>
        <g id="Group-11" transform="translate(8.000000, 11.000000)">
            <mask id="mask-2" fill="white">
                <use xlink:href="#path-1"></use>
            </mask>
            <g id="Clip-9"></g>
            <path d="M8.32980187,7.00052052 C9.17391113,7.01421421 10.8204359,7.0474341 12.2866667,6.5549683 C12.2866667,6.5549683 12.2480052,7.08154154 12.2480052,7.6949683 C12.2480052,8.30852186 12.2866667,8.8349683 12.2866667,8.8349683 C10.9418532,8.38333 9.28092513,8.37394728 8.32980187,8.38599266 L8.32980187,11.6533333 L6.99673845,11.6533333 L6.99673845,8.38599266 C6.04574154,8.37394728 4.38493983,8.38333 3.04,8.8349683 C3.04,8.8349683 3.07866149,8.30852186 3.07866149,7.6949683 C3.07866149,7.08154154 3.04,6.5549683 3.04,6.5549683 C4.50623079,7.0474341 6.15275554,7.01421421 6.99673845,7.00052052 L6.99673845,4.94849516 C6.22755163,4.94164831 5.11900281,4.97854521 3.86566292,5.3994995 C3.86566292,5.3994995 3.90445076,4.87292626 3.90445076,4.25937271 C3.90445076,3.64607274 3.86566292,3.1194995 3.86566292,3.1194995 C5.11723399,3.53969303 6.22426666,3.57722389 6.99332714,3.57050384 C6.95378123,2.27112446 6.57651582,0.633333333 6.57651582,0.633333333 C6.57651582,0.633333333 7.35290429,0.694067401 7.66320699,0.694067401 C7.97388872,0.694067401 8.7500245,0.633333333 8.7500245,0.633333333 C8.7500245,0.633333333 8.37288543,2.27112446 8.33333953,3.57050384 C9.1024,3.57722389 10.2094327,3.53969303 11.4608774,3.1194995 C11.4608774,3.1194995 11.4220896,3.64607274 11.4220896,4.25937271 C11.4220896,4.87292626 11.4608774,5.3994995 11.4608774,5.3994995 C10.2076639,4.97854521 9.09911504,4.94164831 8.32980187,4.94849516 L8.32980187,7.00052052" id="Fill-8" fill="#FFFFFE" mask="url(#mask-2)"></path>
            <path d="M7.46285401,21.0266667 L1.01333333,15.2365106 C1.01333333,15.2365106 1.8378495,12.5506609 3.44713852,12.5506609 C4.7261164,12.5506609 5.19281652,13.589242 5.19281652,13.589242 C5.19281652,13.589242 6.03247301,11.4 7.59987383,11.4 C9.16752699,11.4 10.0071835,13.589242 10.0071835,13.589242 C10.0071835,13.589242 10.4737574,12.5506609 11.7527353,12.5506609 C13.3621505,12.5506609 14.1866667,15.2365106 14.1866667,15.2365106 L7.46285401,21.0266667" id="Fill-10" fill="#1C4689" mask="url(#mask-2)"></path>
        </g>
    </g>
</svg>

<svg width="40" height="40" viewBox="0 0 40 40" version="1.1" xmlns="http://www.w3.org/2000/svg" xmlns:xlink="http://www.w3.org/1999/xlink"><title>EC/Icons/Country flags/Square/40x40/slovakia</title><defs><path d="M7.6 19C4.473 17.495 0 14.507 0 8.597S.283 0 .283 0h14.634s.283 2.688.283 8.597c0 5.91-4.473 8.898-7.6 10.403" id="a"/></defs><g stroke="none" stroke-width="1" fill="none" fill-rule="evenodd"><path fill="#D8262D" d="M1 39h38V1H1z"/><path fill="#1C4689" d="M1 26.65h38V1H1z"/><path fill="#FFFFFE" d="M1 13.35h38V1H1z"/><path d="M38.9 1.1v37.8H1.1V1.1h37.8z" stroke="#979797" stroke-width=".2"/><path d="M15.5 31C12.003 29.336 7 26.034 7 19.502 7 12.971 7.316 10 7.316 10h16.368S24 12.97 24 19.502 18.997 29.336 15.5 31" fill="#FFFFFE"/><path d="M15.5 30C12.414 28.495 8 25.507 8 19.597S8.28 11 8.28 11h14.44s.28 2.688.28 8.597c0 5.91-4.414 8.898-7.5 10.403" fill="#D8262D"/><g transform="translate(8 11)"><mask id="b" fill="#fff"><use xlink:href="#a"/></mask><path d="M8.33 7c.844.014 2.49.047 3.957-.445 0 0-.039.527-.039 1.14 0 .614.039 1.14.039 1.14-1.345-.452-3.006-.461-3.957-.449v3.267H6.997V8.386c-.951-.012-2.612-.003-3.957.449 0 0 .039-.526.039-1.14 0-.613-.039-1.14-.039-1.14 1.466.492 3.113.46 3.957.446V4.948c-.77-.006-1.878.03-3.131.451 0 0 .038-.526.038-1.14 0-.613-.038-1.14-.038-1.14 1.251.42 2.358.458 3.127.452-.04-1.3-.416-2.938-.416-2.938s.776.061 1.086.061c.31 0 1.087-.06 1.087-.06S8.373 2.27 8.333 3.57c.77.006 1.876-.031 3.128-.452 0 0-.039.527-.039 1.14 0 .614.039 1.14.039 1.14-1.253-.42-2.362-.457-3.131-.45V7" fill="#FFFFFE" mask="url(#b)"/><path d="M7.463 21.027l-6.45-5.79s.825-2.686 2.434-2.686a1.924 1.924 0 0 1 1.746 1.038S6.033 11.4 7.6 11.4c1.568 0 2.407 2.19 2.407 2.19s.467-1.04 1.746-1.04c1.61 0 2.434 2.687 2.434 2.687l-6.724 5.79" fill="#1C4689" mask="url(#b)"/></g></g></svg>
